packages/icons/src/assets/quote.svg

<svg width="16" height="16" viewBox="0 0 16 16" fill="none" xmlns="http://www.w3.org/2000/svg"><path d="M6.1625 1.50039C6.71409 1.51693 7.1068 2.05022 6.95293 2.58506L5.61533 7.23428H6.85C7.3 7.23428 7.6 7.55 7.6 7.98428V12.15C7.6 12.8296 7.05769 13.3825 6.38223 13.3996L6.35 13.4H1.75L1.71777 13.3996C1.04231 13.3825 0.5 12.8296 0.5 12.15V7.88545C0.5 7.72406 0.531225 7.56428 0.591895 7.41494L0.604492 7.38525L2.84687 2.2498C3.04573 1.79439 3.49544 1.5 3.99238 1.5H6.13613L6.1625 1.50039ZM14.0625 1.50039C14.6141 1.51693 15.0068 2.05022 14.8529 2.58506L13.5153 7.23428H14.75C15.2 7.23428 15.5 7.55 15.5 7.98428V12.15C15.5 12.8296 14.9577 13.3825 14.2822 13.3996L14.25 13.4H9.65L9.61777 13.3996C8.94231 13.3825 8.4 12.8296 8.4 12.15V7.88545C8.4 7.72406 8.43123 7.56428 8.49189 7.41494L8.50449 7.38525L10.7469 2.2498C10.9457 1.79439 11.3954 1.5 11.8924 1.5H14.0361L14.0625 1.50039ZM1.75 7.88545V12.2H6.35V8.35H5.41533C4.5 8.35 4.19667 7.7 4.41406 6.88867L5.7 2.75H3.99238L1.75 7.88545ZM9.65 7.88545V12.2H14.25V8.35H13.3153C12.4 8.35 12.0967 7.7 12.3141 6.88867L13.6 2.75H11.8924L9.65 7.88545Z" fill="currentColor"/></svg>

<svg xmlns="http://www.w3.org/2000/svg" width="16" height="16" viewBox="0 0 16 16"><path d="M6.163 1.5a.85.85 0 0 1 .79 1.085l-1.338 4.65H6.85c.45 0 .75.315.75.75v4.165a1.25 1.25 0 0 1-1.218 1.25H1.718A1.25 1.25 0 0 1 .5 12.15V7.885c0-.16.031-.32.092-.47l.012-.03L2.847 2.25a1.25 1.25 0 0 1 1.145-.75h2.17m7.9 0a.85.85 0 0 1 .79 1.085l-1.338 4.65h1.235c.45 0 .75.315.75.75v4.165a1.25 1.25 0 0 1-1.218 1.25H9.618A1.25 1.25 0 0 1 8.4 12.15V7.885c0-.16.031-.32.092-.47l.012-.03 2.243-5.135a1.25 1.25 0 0 1 1.145-.75h2.171M1.75 7.885V12.2h4.6V8.35h-.935c-.915 0-1.218-.65-1-1.461L5.7 2.75H3.992zm7.9 0V12.2h4.6V8.35h-.935c-.915 0-1.218-.65-1-1.461L13.6 2.75h-1.708z"/></svg>
